packages/sources/icons/src/vitamix/home-fill.svg

<svg width="16" height="16" viewBox="0 0 16 16" xmlns="http://www.w3.org/2000/svg"><path d="M13.3333 13.7656C13.3333 14.1338 13.0348 14.4322 12.6666 14.4322H3.33329C2.9651 14.4322 2.66663 14.1338 2.66663 13.7656V7.76557H0.666626L7.55129 1.5069C7.80564 1.27547 8.19428 1.27547 8.44863 1.5069L15.3333 7.76557H13.3333V13.7656Z"/></svg>

<svg width="16" height="16" xmlns="http://www.w3.org/2000/svg"><path d="M13.333 13.766a.667.667 0 0 1-.666.666H3.333a.667.667 0 0 1-.666-.666v-6h-2l6.884-6.26a.667.667 0 0 1 .898 0l6.884 6.26h-2v6Z"/></svg>
